vsi/fold-down_light.svg

<svg viewBox="0 0 16 16" fill="none" xmlns="http://www.w3.org/2000/svg" height="1em" width="1em">
  <g clip-path="url(#a)">
    <path fill-rule="evenodd" clip-rule="evenodd" d="M14.2072 1.707L13.5002 1L7.50021 7L1.50021 1L0.793213 1.707L7.14621 8.061H7.85421L14.2072 1.707ZM14.2072 7.70688L13.5002 6.99988L7.50021 12.9999L1.50021 6.99988L0.793213 7.70688L7.14621 14.0609H7.85421L14.2072 7.70688Z" fill="#424242"/>
  </g>
  <defs>
    <clipPath id="a">
      <rect width="16.0002" height="16" fill="white" transform="translate(0.000244141)"/>
    </clipPath>
  </defs>
</svg>

<svg viewBox="0 0 16 16" fill="none" xmlns="http://www.w3.org/2000/svg" height="1em" width="1em">
  <g clip-path="url(#a)">
    <path fill-rule="evenodd" clip-rule="evenodd" d="M14.207 1.707 13.5 1l-6 6-6-6-.707.707 6.353 6.354h.708l6.353-6.354Zm0 6L13.5 7l-6 6-6-6-.707.707 6.353 6.354h.708l6.353-6.354Z" fill="#424242"/>
  </g>
  <defs>
    <clipPath id="a">
      <path fill="#fff" d="M0 0h16v16H0z"/>
    </clipPath>
  </defs>
</svg>
